X:0408
T:Waltz Country Dance
P:Come o'er the Stream, Charlie
C:Traditional
R:Waltz (nx40) AABCC
B:RSCDS 4-8
Z:Anselm Lingnau <anselm@strathspey.org>
M:3/4
L:1/8
K:G
D2|:"G"[G3B,3] B d2|d2 B2 "C"e2|"G"d2 B2 g2|"Bm"d2 B2 "B7"A2|\
    "Em"G3 B d2|"G"d2 B2 "Em"G2|\
            "G"D2 B2 "D7"[A2C2]|1"G"[G4B,4] "D7"[D2C2]:|2 "G"[G4B,4]||
d2|"G"g3 f g2|"C"e2 f2 g2|"A7"e2 a2 g2|"D"f2 "D/E"e2 "D7/F#"d2|\
   "G"g3 f "G/B"g2|"C"e2 "G/B"d2 "D7/A"c2|"G"B2 "D/F#"A2 "A7/E"G2|"D"d4 "G7"B2|
   "Am"c2 e2 "D7"c2|"G"B2 d2 g2|d3 B "A7"AG|"D"B2 A2 "D7"d2|\
   "G"g3 "Em"x f "C"e2|"G"d2 B2 "Em"G2|"G"D2 B2 "D7"[A2C2]|"G"[G4B,4]||
B2|"Am"c2 e2 "D7"c2|"G"B2 d2 g2|d3 B "A7"AG|"D"B2 A2 "D7"d2|\
   "G"g3 "Em"x f "C"e2|"G"d2 B2 "Em"G2|"G"D2 B2 "D7"[A2C2]|"G"[G4B,4]|]
